Sources/FrostedUI/Resources/Icons.xcassets/trash20.imageset/trash-20.svg

<svg width="20" height="20" viewBox="0 0 20 20" fill="none" xmlns="http://www.w3.org/2000/svg" data-fui-icon="true">
  <path
    d="M10.4258 0C11.9895 0.000229104 13.3319 1.11436 13.6201 2.65137L13.873 4H18C18.4142 4 18.75 4.33579 18.75 4.75C18.75 5.16421 18.4142 5.5 18 5.5H17.6562L16.1045 17.1963C15.9918 18.7724 14.6816 19.9998 13.0947 20H6.90527C5.3184 19.9998 4.00821 18.7723 3.89551 17.1963L2.34375 5.5H2C1.58579 5.5 1.25 5.16421 1.25 4.75C1.25 4.33579 1.58579 4 2 4H6.12793L6.38086 2.65137C6.66908 1.11421 8.01125 0 9.5752 0H10.4258ZM5.38184 16.999L5.3877 17.0586L5.40234 17.208C5.51307 17.9431 6.14708 18.4998 6.90527 18.5H13.0947C13.9035 18.4998 14.5705 17.8663 14.6123 17.0586L14.6182 16.999L16.1445 5.5H3.85547L5.38184 16.999ZM9.5752 1.5C8.73307 1.5 8.00969 2.10003 7.85449 2.92773L7.65332 4H12.3467L12.1455 2.92773C11.9903 2.10019 11.2677 1.50023 10.4258 1.5H9.5752Z"
    fill="currentColor"
  />
</svg>

<svg xmlns="http://www.w3.org/2000/svg" width="20" height="20" fill="none" data-fui-icon="true" viewBox="0 0 20 20"><path fill="currentColor" d="M10.426 0a3.25 3.25 0 0 1 3.194 2.651L13.873 4H18a.75.75 0 0 1 0 1.5h-.344l-1.551 11.696A3.02 3.02 0 0 1 13.095 20h-6.19a3.02 3.02 0 0 1-3.01-2.804L2.345 5.5H2A.75.75 0 0 1 2 4h4.128l.253-1.349A3.25 3.25 0 0 1 9.575 0zM5.382 16.999l.006.06.014.149A1.52 1.52 0 0 0 6.905 18.5h6.19a1.52 1.52 0 0 0 1.517-1.441l.006-.06L16.145 5.5H3.855zM9.575 1.5c-.842 0-1.565.6-1.72 1.428L7.652 4h4.694l-.201-1.072a1.75 1.75 0 0 0-1.72-1.428z"/></svg>
